X:1
T:I Know His Love Is Mine
T:Albert Allen Ketchum
T:I Know His Love Is Mine
T:Public Domain
T:Public Domain
C:Albert Allen Ketchum
Z:Public Domain
%%score 1 ( 2 3 )
L:1/8
M:4/4
K:Bb
V:1 treble 
V:2 bass 
V:3 bass 
V:1
 [B,D][CE] | [DF]2 [DF]2 [DF][Fd][Fc][FB] | %2
w: 1.~Oh! the|love that gave my Lord to|
w: 2.~Oh! the|love that sought me when I|
w: 3.~Oh! the|love that o- pened wide the|
 [Ec][EB][EB][EG] [DF]2 [DB][DG] [EA]2 [EA]2 [EA]2 [Ec][EF] | [DB]2 [EB]2 [DB]2 [B,D][CE] | %4
w: die on Cal- va- ry! Match- less love un- told, pur- er|far than gold; Love that|
w: wan- dered far a- way! Bid- ding me come in from the|paths of sin; Plead- ing|
w: gates of God on high! For His ran- somed own, ’round the|heav’n- ly throne; Love di-|
 [DF]2 [DF]2 [DF][Fd][Fc][FB] | [Ec][EB][EB][EG] [DF]4 | [Fd] [Fd]2 [FB] [Fd][Ec][DB][EA] | %7
w: of- fered all up- on the|cross to set me free,|This is the love of Christ for|
w: with me gent- ly ev- ery|ho- ur, ev- ery day,|Such was the love of Christ for|
w: vine, I’ll un- der- stand it|ful- ly bye and bye,|Oh! won- drous love of Christ for|
 [DB]6 ||"^Refrain" [B,D][CE] | [DF]3 [DB] [DB][CA][Ec][DB] | [Fd]6 [Fd][Fc] | %11
w: me.||||
w: me.|Pre- cious|love, oh, won- drous love di-|vine— Can it|
w: me.||||
 [GB]3 [^FA] [Ac][GB][=FA][EG] | [DF]6 [B,D][CE] | [DF]2 [DF]2 [DF][Fd][Fc][FB] | %14
w: |||
w: be this match- less love is|mine? Yes! its|pow- er thrills me, and its|
w: |||
 [EG]2 [FG]2 [EG][Ge][GB][_Gc] | [Fd]6 [Ge]2 | [Fd]2 [Ec]2 [DB]2 [EA]2 | [DB]6 |] %18
w: ||||
w: glo- ry fills me; Praise His|name, I|know His love is|mine.|
w: ||||
V:2
 [B,,F,][B,,F,] | [B,,B,]2 [B,,B,]2 [B,,B,][B,,B,][B,,A,][D,B,] | %2
 [E,G,][E,G,][E,G,][E,B,] [B,,B,]2 [B,,F,][B,,F,] [C,F,]2 [C,F,]2 [F,,F,]2 [F,,A,][F,,A,] | %3
 [B,,F,]2 [B,,G,]2 [B,,F,]2 [B,,F,][B,,F,] | [B,,B,]2 [B,,B,]2 [B,,B,][B,,B,][C,A,][D,B,] | %5
 [E,G,][E,G,][E,G,][E,B,] [B,,B,]4 | [B,,B,] [B,,B,]2 [D,B,] [F,B,][F,A,][F,B,]F, | [B,,F,]6 || %8
 [B,,F,][B,,F,] | [B,,B,]3 [B,,B,] [B,,B,][B,,F,][B,,F,][B,,F,] | [B,,B,]6 [B,,B,][D,B,] | %11
 [E,B,]3 [E,B,] [E,E][E,E][E,E][E,B,] | [B,,B,]6 [B,,F,][B,,F,] | %13
 [B,,B,]2 [B,,B,]2 [B,,B,][B,,B,][C,A,][D,B,] | [E,B,]2 [D,=B,]2 [C,C][C,C][E,_B,][=E,B,] | %15
 [F,B,]6 [F,B,]2 | [F,B,]2 [F,A,]2 F,2 [F,,F,]2 | [B,,F,]6 |] %18
V:3
 x2 | x8 | x16 | x8 | x8 | x8 | x7 F, | x6 || x2 | x8 | x8 | x8 | x8 | x8 | x8 | x8 | x4 F,2 x2 | %17
 x6 |] %18

